svgs/light/square-a.svg

<svg xmlns="http://www.w3.org/2000/svg" viewBox="0 0 448 512"><!--! Font Awesome Pro 6.3.0 by @fontawesome - https://fontawesome.com License - https://fontawesome.com/license (Commercial License) Copyright 2023 Fonticons, Inc. --><path d="M384 32H64C28.65 32 0 60.65 0 96v320c0 35.35 28.65 64 64 64h320c35.35 0 64-28.65 64-64V96C448 60.65 419.3 32 384 32zM416 416c0 17.64-14.36 32-32 32H64c-17.64 0-32-14.36-32-32V96c0-17.64 14.36-32 32-32h320c17.64 0 32 14.36 32 32V416zM238.3 136.8c-5.438-10.84-23.19-10.84-28.62 0l-112 224c-3.953 7.906-.75 17.52 7.156 21.47c7.906 3.922 17.52 .75 21.47-7.156l19.89-39.79C147.3 335.6 148.2 336 149.3 336h149.3c1.107 0 2.078-.4141 3.123-.6289l19.89 39.79C324.5 380.8 330.1 384 336 384c2.406 0 4.844-.5469 7.141-1.688c7.906-3.953 11.11-13.56 7.156-21.47L238.3 136.8zM161.9 304L224 179.8L286.1 304H161.9z"/></svg>

<svg xmlns="http://www.w3.org/2000/svg" viewBox="0 0 448 512"><!-- Font Awesome Pro 6.0.0-alpha2 by @fontawesome - https://fontawesome.com License - https://fontawesome.com/license (Commercial License) --><path d="M384 32H64C28.654 32 0 60.654 0 96V416C0 451.346 28.654 480 64 480H384C419.348 480 448 451.346 448 416V96C448 60.654 419.348 32 384 32ZM416 416C416 433.645 401.645 448 384 448H64C46.355 448 32 433.645 32 416V96C32 78.355 46.355 64 64 64H384C401.645 64 416 78.355 416 96V416ZM238.312 136.844C232.875 126 215.125 126 209.688 136.844L97.688 360.844C93.734 368.75 96.938 378.359 104.844 382.312C112.75 386.234 122.359 383.062 126.312 375.156L146.205 335.371C147.25 335.586 148.221 336 149.328 336H298.672C299.779 336 300.75 335.586 301.795 335.371L321.688 375.156C324.5 380.766 330.141 384 336.016 384C338.422 384 340.859 383.453 343.156 382.312C351.062 378.359 354.266 368.75 350.312 360.844L238.312 136.844ZM161.891 304L224 179.781L286.109 304H161.891Z"/></svg>
